X:281
T:Air
R:Other
O:Ireland
M:3/4
K:Bm
f2 ed cB | (3cde AB ce | d2ce dc | BA FE FA |\
f2 ed cB | (3cde AB ce | d2 ce dc | d2 B2B2 :|*
F2 Bc d2 | F2 Bc d2 | c2 AB ce | dc BA FE |\
F2Bc d2 | F2 Bc d2 | c2 AB ce | d2 B2B2 :|**
